X:1
T:Title
%%score { ( 1 3 ) | ( 2 4 ) }
L:1/8
M:4/4
K:F
V:1 treble nm="Grand Piano"
V:3 treble 
V:2 bass 
V:4 bass 
V:1
 z4 z2[Q:1/4=100] c2 | c2 B2 A2 z G | A2 [EG]2 F2 c2 | d2 c2 B2 A2 |[M:3/4] [CEG]6 | %5
[M:1/4] [CFA]2 |[M:4/4] [CFA]2 [B,EG]2 [A,F]2 [DG][CA] | .[B,DB]2 [CFA]2 [CEG]2 d-[Gd] | %8
 [Ac]2 [DFB]2 [CFA]2 .[CEG]2 |[M:3/4] [A,F]6 |] %10
V:2
 z4 z2 [F,A,F]2 | [F,A,F]2 [F,DF]2 [F,CF]2 A,B, | [F,CF]2 [C,B,]2 [F,A,]2 [F,A,F]2 | %3
 [F,B,F]2 [F,A,F]2 [F,DF]2 [F,CF]2 |[M:3/4] C,6 |[M:1/4] F,2 |[M:4/4] F,2 C,2 D,2 B,,A,, | %7
 z EA,,B,, C,2 B,-[E,B,] | [F,A,]2 B,,2 C,2 z B, |[M:3/4] F,6 |] %10
V:3
 x8 | z4 z2 F2 | x8 | x8 |[M:3/4] x6 |[M:1/4] x2 |[M:4/4] x8 | z4 z2 .F2 | x8 |[M:3/4] x6 |] %10
V:4
 x8 | z4 z2 F,2 | x8 | x8 |[M:3/4] x6 |[M:1/4] x2 |[M:4/4] x8 | G,,2 z2 z2 .D,2 | z4 z2 C,2 | %9
[M:3/4] x6 |] %10

